X:108
T:Real Scotch Polkas(4). Le4.108, The
M:2/4
L:1/8
Q:1/4=100
B:L.Leadley MS#4 c1850
Z:Village Music Project, 2016 Ruairidh Greig
K:F
(c/B/)|Accc'|{bc'}(ba).g.f|(d/e/).f .c.A|(c/B/A/B/) .G(c/B/)|
(Ac).c.c'|{b/c'/}bagf|d/e/f c>B|AFFH:|
|:(c/B/)|.A.c.c.f|.d.f.c.A|.B.d.c.A|.d(e/f/ g)(c/B/)|
.A.c.c.f|.d.f.c.A|{A}G/^F/G/d/ .c.B|.A.F.F"$":|
B:L.Leadley MS#4 c1850
Z:Village Music Project, 2016 Ruairidh Greig
K:Gm
"Trio"d/e/|..f.dd>c|dc(d>g)|f<dd>B|cBc d/e/|
f<ddc|Bcdz/c/|BGF>d|{d}cBA (d/e/)|
f(g/a/) bd'|c'>=bc'>d' _bf|(fg/a/) bd|{d}(c/=B/c/d/)  cd/e/|
fg/a/ b>c'|{d'e'}d'/'b/e'/d'/ c'b/c'/|{d'e'}d'>c' bd|(c/>=B/c/>d/) "_D.C."_B|]

